austria/municipalities/20712.svg

<svg xmlns="http://www.w3.org/2000/svg" width="850" height="855" style="shape-rendering:geometricPrecision;text-rendering:geometricPrecision;image-rendering:optimizeQuality;fill-rule:evenodd;clip-rule:evenodd"><path style="opacity:1" fill="#272323" d="M10.5 13.5h828a205589.346 205589.346 0 0 1-34.5 483C788.926 619.575 730.093 715.075 627.5 783c-109.946 65.494-224.946 75.827-345 31C162.579 762.741 86.412 673.908 54 547.5a507.116 507.116 0 0 1-8-44 120979.022 120979.022 0 0 1-35.5-490z"/><path style="opacity:1" fill="#344227" d="M30.5 31.5c262.833-1 525.833-1.333 789-1 .295 2.235-.039 4.235-1 6v-5h-788z"/><path style="opacity:1" fill="#fcb713" d="M30.5 31.5h394v792c-111.049-2.595-203.216-45.262-276.5-128-48.76-59.228-77.094-127.228-85-204a73729.703 73729.703 0 0 1-32.5-460z"/><path style="opacity:1" fill="#02a54f" d="M424.5 31.5h394v5a48055.44 48055.44 0 0 1-33.5 467C768.127 619.279 710.627 708.446 612.5 771c-58.033 34.009-120.7 51.509-188 52.5v-792z"/><path style="opacity:1" fill="#292927" d="M599.5 111.5c24.798-1.03 40.631 10.303 47.5 34 1.482 23.216-8.685 38.716-30.5 46.5-27.168 3.484-44.001-8.016-50.5-34.5-.781-24.126 10.386-39.459 33.5-46z"/><path style="opacity:1" fill="#fdfdfd" d="M599.5 115.5c30.51-.264 44.676 14.736 42.5 45-7.023 22.274-22.19 31.441-45.5 27.5-20.819-8.129-29.319-23.296-25.5-45.5 4.929-13.872 14.429-22.872 28.5-27z"/><path style="opacity:1" fill="#272421" d="M266.5 121.5c.652.949.986 2.115 1 3.5a450.568 450.568 0 0 0-1.5 61.5c1.154 13.502 7.988 22.669 20.5 27.5a17262.386 17262.386 0 0 1 99 34.5 52.625 52.625 0 0 0-14.5 11c-.559 4.053.941 7.22 4.5 9.5a453.138 453.138 0 0 0 34 22 74.242 74.242 0 0 1-5 6.5 238.055 238.055 0 0 0 14 22 73.735 73.735 0 0 1-9 2.5 3.943 3.943 0 0 0-1 2c6.552 14.034 7.718 28.534 3.5 43.5l-12-10a180.159 180.159 0 0 0 4 19c2.714 22.599-1.786 43.599-13.5 63a47.79 47.79 0 0 0-10-6 553.172 553.172 0 0 0-1 47 78.13 78.13 0 0 1-14-3 401.829 401.829 0 0 1-9.5 43 29.964 29.964 0 0 1-7-6 2542.876 2542.876 0 0 1-10.5 40 59.319 59.319 0 0 0-8-4.5c-1.284-.684-2.451-.517-3.5.5a147.463 147.463 0 0 1-15 33l-8-10c-1.583 2.411-2.583 5.078-3 8l-1 40a52.31 52.31 0 0 0-8.5-11 44.856 44.856 0 0 0-5.5 13 353.618 353.618 0 0 0-5 23c-2.109-4.565-4.942-8.565-8.5-12a3.647 3.647 0 0 0-1.5 1 336.836 336.836 0 0 0-11 34c-10.627-15.537-17.96-32.537-22-51l-9 6a753.769 753.769 0 0 1-6.5-38 40.153 40.153 0 0 0-10.5 4 1956.476 1956.476 0 0 1-9.5-47 68.141 68.141 0 0 0-13 7c-7.953-8.572-13.287-18.572-16-30a416.702 416.702 0 0 0-15.5 5l-1.5-1a232.084 232.084 0 0 1-9-53l-1-2c-2.235 1.252-4.569 1.752-7 1.5-5.437-8.726-7.437-18.226-6-28.5l-18 6c-5.478-21.211-5.144-42.378 1-63.5-.255-1.326-.922-2.326-2-3-4.863-.029-9.53-.862-14-2.5a45.626 45.626 0 0 1 0-19l-1-1-6 4c-3.957-11.338-1.957-21.504 6-30.5a91.734 91.734 0 0 0-15-1.5c-.322-4.247.511-8.247 2.5-12a266.89 266.89 0 0 0 12.5-15l-12-8a421.49 421.49 0 0 1 48-27c.963-4.655.296-9.155-2-13.5a3.943 3.943 0 0 1 1-2 5115.354 5115.354 0 0 0 73-34 257.325 257.325 0 0 1 34-12c4.155-3.085 6.322-7.251 6.5-12.5a336.033 336.033 0 0 0-3.5-71c7.761 1.551 15.095.551 22-3z"/><path style="opacity:1" fill="#04a54f" d="m296.5 585.5-2 21c-.929-1.436-2.095-2.769-3.5-4-6.17 10.174-10.17 21.174-12 33-1.5-2.167-3.333-4-5.5-5.5-1.867-.711-3.367-.211-4.5 1.5a116.895 116.895 0 0 0-10 28c-9.198-14.417-15.364-30.084-18.5-47l-8 5a340.808 340.808 0 0 1-7-36c-3.34.104-6.673 1.104-10 3a770.194 770.194 0 0 1-11-48l-14 9a150.853 150.853 0 0 1-8.5-12 119.446 119.446 0 0 0-7.5-18 197.77 197.77 0 0 1-15 5 327.769 327.769 0 0 1-9-57 34.367 34.367 0 0 1-7.5 3c-2.026-1.02-3.359-2.687-4-5a115.297 115.297 0 0 1-1.5-25 103.038 103.038 0 0 0-18 7 3.647 3.647 0 0 1-1.5-1 104.055 104.055 0 0 1-2.5-22.5 702.21 702.21 0 0 1 4.5-39.5 29.517 29.517 0 0 0-4.5-2.5 220.352 220.352 0 0 1-12-1.5 67.968 67.968 0 0 1 1-15.5c-1.138-4.4-3.805-5.9-8-4.5-1.727-5.734-.893-11.067 2.5-16a183.542 183.542 0 0 1 7.5-10.5 901.62 901.62 0 0 1-18-3.5c1.058-3.783 2.89-7.117 5.5-10a194.53 194.53 0 0 0 11.5-12 57.49 57.49 0 0 0-10-8 491.187 491.187 0 0 1 45-25l1-2a120.13 120.13 0 0 1-3-11.5c28.19-14.923 57.19-28.59 87-41l14-4c8.245-3.3 12.411-9.467 12.5-18.5l.5-19.5a441.177 441.177 0 0 0-3-45.5 52.53 52.53 0 0 0 14-2 346.118 346.118 0 0 0-1.5 55c-.021 17.268 7.812 29.101 23.5 35.5a3650.696 3650.696 0 0 0 91 31c-4.219 2.552-7.386 6.052-9.5 10.5-.706 2.471-.373 4.805 1 7a167.385 167.385 0 0 0 35.5 25.5c-1.727 1.389-3.061 3.056-4 5a354.994 354.994 0 0 0 12 19.5c-2.692 1.774-5.692 3.108-9 4 7.282 12.123 9.615 25.123 7 39l-9-6.5c-1.667-.667-3.333-.667-5 0a4.933 4.933 0 0 0-1 2.5c7.341 20.841 7.841 41.841 1.5 63-1.465 5.591-3.965 10.591-7.5 15a153.95 153.95 0 0 1-12.5-8c-.5 16.663-.667 33.33-.5 50a240.522 240.522 0 0 1-15-3 176.178 176.178 0 0 1-6.5 41 29.964 29.964 0 0 1-7-6c-3.665 13.655-7.332 27.322-11 41a84.635 84.635 0 0 1-7.5-4.5c-1.135-.749-2.135-.583-3 .5a226.712 226.712 0 0 1-14 31 71.94 71.94 0 0 1-9-11 75.942 75.942 0 0 0-6 21z"/><path style="opacity:1" fill="#f3b715" d="M263.5 447.5c-.06-.543-.393-.876-1-1a651.277 651.277 0 0 0-1 51 13.116 13.116 0 0 0 1 7 841.527 841.527 0 0 1 42 42.5c-.263 1.946-1.263 2.612-3 2a2116.156 2116.156 0 0 0-39-38.5c-1 41.661-1.333 83.328-1 125h-4c.167-41.335 0-82.668-.5-124a815.767 815.767 0 0 0-33.5 34.5 8.43 8.43 0 0 1-4 .5 8.43 8.43 0 0 1 .5-4l37-37a840.83 840.83 0 0 0 0-58L192.5 512c-1.819.783-3.152.283-4-1.5a6679.246 6679.246 0 0 1 68.5-69c.498-2.982.665-5.982.5-9 1.328-21.17 1.328-42.504 0-64-.607.124-.94.457-1 1-30.358 31.863-61.692 62.363-94 91.5a3.943 3.943 0 0 1-1-2 4370.108 4370.108 0 0 1 96-96.5c1.328-21.504 1.328-43.17 0-65-.607.124-.94.457-1 1a7278.087 7278.087 0 0 0-124 124.5c-2.316 2.328-3.982 1.995-5-1A11947.982 11947.982 0 0 1 257 291.5a1121.94 1121.94 0 0 0 0-67A13465.887 13465.887 0 0 0 119.5 363a8.43 8.43 0 0 1-4 .5 8.43 8.43 0 0 1 .5-4 27990.431 27990.431 0 0 0 140.5-141 86.578 86.578 0 0 0 1.5-13c1-1.333 2-1.333 3 0l1 11c42.68 42.514 85.18 85.18 127.5 128-.848 1.783-2.181 2.283-4 1.5a21287.723 21287.723 0 0 0-123-122.5l-1 9c.713 19.66 1.213 39.327 1.5 59 35.68 35.514 71.18 71.18 106.5 107-.848 1.783-2.181 2.283-4 1.5L263 297.5a1055.972 1055.972 0 0 0 0 65 5790.607 5790.607 0 0 0 90 91 8.43 8.43 0 0 1 .5 4 8.43 8.43 0 0 1-4-.5 5347.277 5347.277 0 0 0-86.5-87.5 408.465 408.465 0 0 0-1.5 38.5l1 32.5a1424.355 1424.355 0 0 1 63 64c-.848 1.783-2.181 2.283-4 1.5a4792.048 4792.048 0 0 1-58-58.5z"/><path style="opacity:1" fill="#262320" d="M592.5 405.5c.666-3.819.999-7.819 1-12-.009-4.393-.676-8.393-2-12-29.285-7.116-48.452-25.116-57.5-54-2.965-31.825-9.631-62.825-20-93a181.976 181.976 0 0 0-10.5-19.5c68.667-.667 137.333-.667 206 0-13.147 22.07-21.314 45.903-24.5 71.5a562.191 562.191 0 0 0-5 37c-6.056 25.726-21.222 43.893-45.5 54.5a54.874 54.874 0 0 1-10 2.5 218.57 218.57 0 0 0 1.5 34 529.43 529.43 0 0 0 14.5 41c-9.308 25.231-15.141 51.231-17.5 78a544.417 544.417 0 0 0-.5 33c25.053 4.048 43.386 17.381 55 40a31.116 31.116 0 0 0 11 1v22h-160v-22a31.116 31.116 0 0 0 11-1c12.141-22.734 30.807-36.734 56-42 .47-37.516-5.864-73.849-19-109a242.627 242.627 0 0 0 16-50z"/><path style="opacity:1" fill="#fbb613" d="M510.5 217.5h192a358.797 358.797 0 0 0-13.5 33 540.581 540.581 0 0 0-13 73c-10.321 35.814-34.155 54.147-71.5 55-29.926-1.43-51.092-15.763-63.5-43a190.6 190.6 0 0 1-4-13 512.823 512.823 0 0 0-14-76 279.537 279.537 0 0 0-12.5-29z"/><path style="opacity:1" fill="#b3b325" d="M256.5 298.5c.06-.543.393-.876 1-1 1.328 21.83 1.328 43.496 0 65 .331-21.507-.003-42.84-1-64z"/><path style="opacity:1" fill="#beb421" d="M256.5 369.5c.06-.543.393-.876 1-1 1.328 21.496 1.328 42.83 0 64a992.742 992.742 0 0 0-1-63z"/><path style="opacity:1" fill="#155b35" d="M591.5 381.5c1.324 3.607 1.991 7.607 2 12-.001 4.181-.334 8.181-1 12a151.198 151.198 0 0 0-1-24z"/><path style="opacity:1" fill="#fab513" d="M614.5 382.5h6a225.5 225.5 0 0 0 1.5 34 339.943 339.943 0 0 0 13.5 36.5c-18 .667-36 .667-54 0 7.53-15.754 12.53-32.254 15-49.5.991-6.479 1.324-13.146 1-20 5.858.322 11.525-.011 17-1z"/><path style="opacity:1" fill="#674e1d" d="M614.5 382.5c-5.475.989-11.142 1.322-17 1 .324 6.854-.009 13.521-1 20v-21h18z"/><path style="opacity:1" fill="#7faf31" d="m263.5 447.5-2 50a651.277 651.277 0 0 1 1-51c.607.124.94.457 1 1z"/><path style="opacity:1" fill="#8f6b1a" d="M635.5 458.5c-18.032-.653-35.698.014-53 2-.904-.709-1.237-1.709-1-3a729.55 729.55 0 0 1 54 1z"/><path style="opacity:1" fill="#fbb613" d="M635.5 458.5c-11.915 32.195-17.581 65.528-17 100-.961 1.765-1.295 3.765-1 6h-18c.317-4.202-.017-8.202-1-12a343.439 343.439 0 0 0-3.5-45 417.6 417.6 0 0 0-12.5-47c17.302-1.986 34.968-2.653 53-2z"/><path style="opacity:1" fill="#7c5e1c" d="M598.5 552.5c.983 3.798 1.317 7.798 1 12h18c-.295-2.235.039-4.235 1-6v7h-20v-13z"/><path style="opacity:1" fill="#fbb613" d="M672.5 605.5a2049.012 2049.012 0 0 1-128 0c10.88-19.129 27.214-30.963 49-35.5 27.95-4.23 51.784 3.603 71.5 23.5 3.273 3.552 5.773 7.552 7.5 12z"/><path style="opacity:1" fill="#106a3a" d="M296.5 585.5c.166 7.674 0 15.341-.5 23-.717-.544-1.217-1.211-1.5-2l2-21z"/><path style="opacity:1" fill="#c59116" d="M544.5 605.5a2049.012 2049.012 0 0 0 128 0c.543.06.876.393 1 1a2113.528 2113.528 0 0 1-130 0c.124-.607.457-.94 1-1z"/><path style="opacity:1" fill="#efae15" d="M532.5 610.5h152v16h-152v-16z"/></svg>

<?xml version="1.0" encoding="UTF-8"?>
<!DOCTYPE svg PUBLIC "-//W3C//DTD SVG 1.1//EN" "http://www.w3.org/Graphics/SVG/1.1/DTD/svg11.dtd">
<svg xmlns="http://www.w3.org/2000/svg" version="1.1" width="850px" height="855px" style="shape-rendering:geometricPrecision; text-rendering:geometricPrecision; image-rendering:optimizeQuality; fill-rule:evenodd; clip-rule:evenodd" xmlns:xlink="http://www.w3.org/1999/xlink">
<g><path style="opacity:1" fill="#272323" d="M 10.5,13.5 C 286.5,13.5 562.5,13.5 838.5,13.5C 827.19,174.508 815.69,335.508 804,496.5C 788.926,619.575 730.093,715.075 627.5,783C 517.554,848.494 402.554,858.827 282.5,814C 162.579,762.741 86.4121,673.908 54,547.5C 50.6863,532.951 48.0196,518.284 46,503.5C 33.8345,340.184 22.0012,176.85 10.5,13.5 Z"/></g>
<g><path style="opacity:1" fill="#344227" d="M 30.5,31.5 C 293.333,30.5002 556.333,30.1669 819.5,30.5C 819.795,32.7354 819.461,34.7354 818.5,36.5C 818.5,34.8333 818.5,33.1667 818.5,31.5C 687.167,31.5 555.833,31.5 424.5,31.5C 293.167,31.5 161.833,31.5 30.5,31.5 Z"/></g>
<g><path style="opacity:1" fill="#fcb713" d="M 30.5,31.5 C 161.833,31.5 293.167,31.5 424.5,31.5C 424.5,295.5 424.5,559.5 424.5,823.5C 313.451,820.905 221.284,778.238 148,695.5C 99.2395,636.272 70.9062,568.272 63,491.5C 51.687,338.199 40.8537,184.865 30.5,31.5 Z"/></g>
<g><path style="opacity:1" fill="#02a54f" d="M 424.5,31.5 C 555.833,31.5 687.167,31.5 818.5,31.5C 818.5,33.1667 818.5,34.8333 818.5,36.5C 808.092,192.219 796.925,347.885 785,503.5C 768.127,619.279 710.627,708.446 612.5,771C 554.467,805.009 491.8,822.509 424.5,823.5C 424.5,559.5 424.5,295.5 424.5,31.5 Z"/></g>
<g><path style="opacity:1" fill="#292927" d="M 599.5,111.5 C 624.298,110.47 640.131,121.803 647,145.5C 648.482,168.716 638.315,184.216 616.5,192C 589.332,195.484 572.499,183.984 566,157.5C 565.219,133.374 576.386,118.041 599.5,111.5 Z"/></g>
<g><path style="opacity:1" fill="#fdfdfd" d="M 599.5,115.5 C 630.01,115.236 644.176,130.236 642,160.5C 634.977,182.774 619.81,191.941 596.5,188C 575.681,179.871 567.181,164.704 571,142.5C 575.929,128.628 585.429,119.628 599.5,115.5 Z"/></g>
<g><path style="opacity:1" fill="#272421" d="M 266.5,121.5 C 267.152,122.449 267.486,123.615 267.5,125C 265.599,145.461 265.099,165.961 266,186.5C 267.154,200.002 273.988,209.169 286.5,214C 319.547,225.404 352.547,236.904 385.5,248.5C 380.038,251.317 375.205,254.983 371,259.5C 370.441,263.553 371.941,266.72 375.5,269C 386.493,276.832 397.826,284.165 409.5,291C 407.954,293.257 406.288,295.424 404.5,297.5C 408.772,305.101 413.439,312.434 418.5,319.5C 415.559,320.522 412.559,321.355 409.5,322C 408.978,322.561 408.645,323.228 408.5,324C 415.052,338.034 416.218,352.534 412,367.5C 408,364.167 404,360.833 400,357.5C 400.976,363.829 402.309,370.163 404,376.5C 406.714,399.099 402.214,420.099 390.5,439.5C 387.429,437.102 384.095,435.102 380.5,433.5C 379.501,449.152 379.167,464.819 379.5,480.5C 374.744,479.929 370.077,478.929 365.5,477.5C 363.104,492.075 359.938,506.408 356,520.5C 353.372,518.874 351.039,516.874 349,514.5C 345.605,527.875 342.105,541.208 338.5,554.5C 335.961,552.8 333.295,551.3 330.5,550C 329.216,549.316 328.049,549.483 327,550.5C 323.353,562.126 318.353,573.126 312,583.5C 309.333,580.167 306.667,576.833 304,573.5C 302.417,575.911 301.417,578.578 301,581.5C 300.667,594.833 300.333,608.167 300,621.5C 297.639,617.433 294.806,613.767 291.5,610.5C 288.993,614.513 287.16,618.847 286,623.5C 284.076,631.122 282.409,638.788 281,646.5C 278.891,641.935 276.058,637.935 272.5,634.5C 271.914,634.709 271.414,635.043 271,635.5C 266.732,646.637 263.066,657.97 260,669.5C 249.373,653.963 242.04,636.963 238,618.5C 235,620.5 232,622.5 229,624.5C 226.508,611.88 224.341,599.213 222.5,586.5C 218.824,587.337 215.324,588.67 212,590.5C 208.637,574.85 205.47,559.183 202.5,543.5C 197.976,545.329 193.642,547.662 189.5,550.5C 181.547,541.928 176.213,531.928 173.5,520.5C 168.332,522.056 163.165,523.722 158,525.5C 157.5,525.167 157,524.833 156.5,524.5C 151.449,507.194 148.449,489.527 147.5,471.5C 147.167,470.833 146.833,470.167 146.5,469.5C 144.265,470.752 141.931,471.252 139.5,471C 134.063,462.274 132.063,452.774 133.5,442.5C 127.5,444.5 121.5,446.5 115.5,448.5C 110.022,427.289 110.356,406.122 116.5,385C 116.245,383.674 115.578,382.674 114.5,382C 109.637,381.971 104.97,381.138 100.5,379.5C 99.1667,373.167 99.1667,366.833 100.5,360.5C 100.167,360.167 99.8333,359.833 99.5,359.5C 97.5,360.833 95.5,362.167 93.5,363.5C 89.5428,352.162 91.5428,341.996 99.5,333C 94.5364,332.088 89.5364,331.588 84.5,331.5C 84.1778,327.253 85.0111,323.253 87,319.5C 91.355,314.646 95.5217,309.646 99.5,304.5C 95.5,301.833 91.5,299.167 87.5,296.5C 102.852,286.487 118.852,277.487 135.5,269.5C 136.463,264.845 135.796,260.345 133.5,256C 133.645,255.228 133.978,254.561 134.5,254C 158.918,242.86 183.252,231.527 207.5,220C 218.553,215.205 229.886,211.205 241.5,208C 245.655,204.915 247.822,200.749 248,195.5C 249.343,171.693 248.176,148.026 244.5,124.5C 252.261,126.051 259.595,125.051 266.5,121.5 Z"/></g>
<g><path style="opacity:1" fill="#04a54f" d="M 296.5,585.5 C 295.833,592.5 295.167,599.5 294.5,606.5C 293.571,605.064 292.405,603.731 291,602.5C 284.83,612.674 280.83,623.674 279,635.5C 277.5,633.333 275.667,631.5 273.5,630C 271.633,629.289 270.133,629.789 269,631.5C 264.478,640.4 261.144,649.733 259,659.5C 249.802,645.083 243.636,629.416 240.5,612.5C 237.833,614.167 235.167,615.833 232.5,617.5C 229.522,605.634 227.189,593.634 225.5,581.5C 222.16,581.604 218.827,582.604 215.5,584.5C 211.328,568.644 207.661,552.644 204.5,536.5C 199.833,539.5 195.167,542.5 190.5,545.5C 187.472,541.639 184.639,537.639 182,533.5C 179.982,527.275 177.482,521.275 174.5,515.5C 169.55,517.372 164.55,519.039 159.5,520.5C 154.826,501.776 151.826,482.776 150.5,463.5C 148.12,464.794 145.62,465.794 143,466.5C 140.974,465.48 139.641,463.813 139,461.5C 137.594,453.251 137.094,444.917 137.5,436.5C 131.309,438.259 125.309,440.592 119.5,443.5C 118.914,443.291 118.414,442.957 118,442.5C 116.348,435.089 115.515,427.589 115.5,420C 116.632,406.749 118.132,393.582 120,380.5C 118.581,379.54 117.081,378.707 115.5,378C 111.472,377.608 107.472,377.108 103.5,376.5C 103.242,371.283 103.575,366.116 104.5,361C 103.362,356.6 100.695,355.1 96.5,356.5C 94.7734,350.766 95.6067,345.433 99,340.5C 101.377,336.912 103.877,333.412 106.5,330C 100.511,328.899 94.5114,327.732 88.5,326.5C 89.5575,322.717 91.3908,319.383 94,316.5C 98.0156,312.652 101.849,308.652 105.5,304.5C 102.455,301.453 99.1219,298.787 95.5,296.5C 110.017,287.406 125.017,279.072 140.5,271.5C 140.833,270.833 141.167,270.167 141.5,269.5C 140.31,265.715 139.31,261.882 138.5,258C 166.69,243.077 195.69,229.41 225.5,217C 230.167,215.667 234.833,214.333 239.5,213C 247.745,209.7 251.911,203.533 252,194.5C 252.167,188 252.333,181.5 252.5,175C 252.284,159.777 251.284,144.61 249.5,129.5C 254.271,129.462 258.938,128.796 263.5,127.5C 261.541,145.776 261.041,164.109 262,182.5C 261.979,199.768 269.812,211.601 285.5,218C 315.684,228.728 346.018,239.062 376.5,249C 372.281,251.552 369.114,255.052 367,259.5C 366.294,261.971 366.627,264.305 368,266.5C 378.718,276.551 390.551,285.051 403.5,292C 401.773,293.389 400.439,295.056 399.5,297C 403.286,303.622 407.286,310.122 411.5,316.5C 408.808,318.274 405.808,319.608 402.5,320.5C 409.782,332.623 412.115,345.623 409.5,359.5C 406.5,357.333 403.5,355.167 400.5,353C 398.833,352.333 397.167,352.333 395.5,353C 394.941,353.725 394.608,354.558 394.5,355.5C 401.841,376.341 402.341,397.341 396,418.5C 394.535,424.091 392.035,429.091 388.5,433.5C 384.199,431.031 380.033,428.364 376,425.5C 375.5,442.163 375.333,458.83 375.5,475.5C 370.468,474.659 365.468,473.659 360.5,472.5C 359.949,486.421 357.783,500.088 354,513.5C 351.372,511.874 349.039,509.874 347,507.5C 343.335,521.155 339.668,534.822 336,548.5C 333.417,547.126 330.917,545.626 328.5,544C 327.365,543.251 326.365,543.417 325.5,544.5C 321.601,555.203 316.934,565.537 311.5,575.5C 308.152,572.149 305.152,568.482 302.5,564.5C 299.493,571.194 297.493,578.194 296.5,585.5 Z"/></g>
<g><path style="opacity:1" fill="#f3b715" d="M 263.5,447.5 C 263.44,446.957 263.107,446.624 262.5,446.5C 261.501,463.487 261.167,480.487 261.5,497.5C 261.192,499.924 261.526,502.257 262.5,504.5C 277.027,518.194 291.027,532.36 304.5,547C 304.237,548.946 303.237,549.612 301.5,549C 288.626,535.959 275.626,523.125 262.5,510.5C 261.5,552.161 261.167,593.828 261.5,635.5C 260.167,635.5 258.833,635.5 257.5,635.5C 257.667,594.165 257.5,552.832 257,511.5C 245.47,522.696 234.303,534.196 223.5,546C 222.207,546.49 220.873,546.657 219.5,546.5C 219.343,545.127 219.51,543.793 220,542.5C 232.333,530.167 244.667,517.833 257,505.5C 257.667,486.167 257.667,466.833 257,447.5C 235.5,469 214,490.5 192.5,512C 190.681,512.783 189.348,512.283 188.5,510.5C 211.153,487.347 233.986,464.347 257,441.5C 257.498,438.518 257.665,435.518 257.5,432.5C 258.828,411.33 258.828,389.996 257.5,368.5C 256.893,368.624 256.56,368.957 256.5,369.5C 226.142,401.363 194.808,431.863 162.5,461C 161.978,460.439 161.645,459.772 161.5,459C 193.022,426.312 225.022,394.145 257.5,362.5C 258.828,340.996 258.828,319.33 257.5,297.5C 256.893,297.624 256.56,297.957 256.5,298.5C 214.674,339.493 173.34,380.993 132.5,423C 130.184,425.328 128.518,424.995 127.5,422C 170.293,378.207 213.46,334.707 257,291.5C 257.667,269.167 257.667,246.833 257,224.5C 210.806,270.361 164.972,316.528 119.5,363C 118.207,363.49 116.873,363.657 115.5,363.5C 115.343,362.127 115.51,360.793 116,359.5C 163.041,312.626 209.874,265.626 256.5,218.5C 257.328,214.204 257.828,209.871 258,205.5C 259,204.167 260,204.167 261,205.5C 261.333,209.167 261.667,212.833 262,216.5C 304.68,259.014 347.18,301.68 389.5,344.5C 388.652,346.283 387.319,346.783 385.5,346C 344.626,304.959 303.626,264.126 262.5,223.5C 262.167,226.5 261.833,229.5 261.5,232.5C 262.213,252.16 262.713,271.827 263,291.5C 298.68,327.014 334.18,362.68 369.5,398.5C 368.652,400.283 367.319,400.783 365.5,400C 331.333,365.833 297.167,331.667 263,297.5C 262.333,319.167 262.333,340.833 263,362.5C 292.639,393.139 322.639,423.472 353,453.5C 353.49,454.793 353.657,456.127 353.5,457.5C 352.127,457.657 350.793,457.49 349.5,457C 321.028,427.528 292.195,398.361 263,369.5C 261.895,382.294 261.395,395.128 261.5,408C 261.833,418.833 262.167,429.667 262.5,440.5C 284.197,461.196 305.197,482.529 325.5,504.5C 324.652,506.283 323.319,506.783 321.5,506C 301.965,486.632 282.632,467.132 263.5,447.5 Z"/></g>
<g><path style="opacity:1" fill="#262320" d="M 592.5,405.5 C 593.166,401.681 593.499,397.681 593.5,393.5C 593.491,389.107 592.824,385.107 591.5,381.5C 562.215,374.384 543.048,356.384 534,327.5C 531.035,295.675 524.369,264.675 514,234.5C 510.882,227.761 507.382,221.261 503.5,215C 572.167,214.333 640.833,214.333 709.5,215C 696.353,237.07 688.186,260.903 685,286.5C 682.924,298.777 681.257,311.11 680,323.5C 673.944,349.226 658.778,367.393 634.5,378C 631.232,379.15 627.899,379.984 624.5,380.5C 624.117,391.888 624.617,403.221 626,414.5C 630.279,428.385 635.112,442.052 640.5,455.5C 631.192,480.731 625.359,506.731 623,533.5C 622.5,544.495 622.333,555.495 622.5,566.5C 647.553,570.548 665.886,583.881 677.5,606.5C 681.107,607.489 684.774,607.823 688.5,607.5C 688.5,614.833 688.5,622.167 688.5,629.5C 635.167,629.5 581.833,629.5 528.5,629.5C 528.5,622.167 528.5,614.833 528.5,607.5C 532.226,607.823 535.893,607.489 539.5,606.5C 551.641,583.766 570.307,569.766 595.5,564.5C 595.97,526.984 589.636,490.651 576.5,455.5C 583.653,439.377 588.986,422.711 592.5,405.5 Z"/></g>
<g><path style="opacity:1" fill="#fbb613" d="M 510.5,217.5 C 574.5,217.5 638.5,217.5 702.5,217.5C 697.47,228.235 692.97,239.235 689,250.5C 682.994,274.545 678.661,298.879 676,323.5C 665.679,359.314 641.845,377.647 604.5,378.5C 574.574,377.07 553.408,362.737 541,335.5C 539.512,331.213 538.178,326.88 537,322.5C 534.244,296.809 529.577,271.476 523,246.5C 519.372,236.579 515.205,226.913 510.5,217.5 Z"/></g>
<g><path style="opacity:1" fill="#b3b325" d="M 256.5,298.5 C 256.56,297.957 256.893,297.624 257.5,297.5C 258.828,319.33 258.828,340.996 257.5,362.5C 257.831,340.993 257.497,319.66 256.5,298.5 Z"/></g>
<g><path style="opacity:1" fill="#beb421" d="M 256.5,369.5 C 256.56,368.957 256.893,368.624 257.5,368.5C 258.828,389.996 258.828,411.33 257.5,432.5C 257.831,411.327 257.497,390.327 256.5,369.5 Z"/></g>
<g><path style="opacity:1" fill="#155b35" d="M 591.5,381.5 C 592.824,385.107 593.491,389.107 593.5,393.5C 593.499,397.681 593.166,401.681 592.5,405.5C 592.801,397.414 592.467,389.414 591.5,381.5 Z"/></g>
<g><path style="opacity:1" fill="#fab513" d="M 614.5,382.5 C 616.5,382.5 618.5,382.5 620.5,382.5C 620.144,393.881 620.644,405.215 622,416.5C 625.814,428.954 630.314,441.121 635.5,453C 617.5,453.667 599.5,453.667 581.5,453C 589.03,437.246 594.03,420.746 596.5,403.5C 597.491,397.021 597.824,390.354 597.5,383.5C 603.358,383.822 609.025,383.489 614.5,382.5 Z"/></g>
<g><path style="opacity:1" fill="#674e1d" d="M 614.5,382.5 C 609.025,383.489 603.358,383.822 597.5,383.5C 597.824,390.354 597.491,397.021 596.5,403.5C 596.5,396.5 596.5,389.5 596.5,382.5C 602.5,382.5 608.5,382.5 614.5,382.5 Z"/></g>
<g><path style="opacity:1" fill="#7faf31" d="M 263.5,447.5 C 262.833,464.167 262.167,480.833 261.5,497.5C 261.167,480.487 261.501,463.487 262.5,446.5C 263.107,446.624 263.44,446.957 263.5,447.5 Z"/></g>
<g><path style="opacity:1" fill="#8f6b1a" d="M 635.5,458.5 C 617.468,457.847 599.802,458.514 582.5,460.5C 581.596,459.791 581.263,458.791 581.5,457.5C 599.674,457.17 617.674,457.503 635.5,458.5 Z"/></g>
<g><path style="opacity:1" fill="#fbb613" d="M 635.5,458.5 C 623.585,490.695 617.919,524.028 618.5,558.5C 617.539,560.265 617.205,562.265 617.5,564.5C 611.5,564.5 605.5,564.5 599.5,564.5C 599.817,560.298 599.483,556.298 598.5,552.5C 598.321,537.433 597.154,522.433 595,507.5C 591.734,491.543 587.567,475.877 582.5,460.5C 599.802,458.514 617.468,457.847 635.5,458.5 Z"/></g>
<g><path style="opacity:1" fill="#7c5e1c" d="M 598.5,552.5 C 599.483,556.298 599.817,560.298 599.5,564.5C 605.5,564.5 611.5,564.5 617.5,564.5C 617.205,562.265 617.539,560.265 618.5,558.5C 618.5,560.833 618.5,563.167 618.5,565.5C 611.833,565.5 605.167,565.5 598.5,565.5C 598.5,561.167 598.5,556.833 598.5,552.5 Z"/></g>
<g><path style="opacity:1" fill="#fbb613" d="M 672.5,605.5 C 629.833,606.833 587.167,606.833 544.5,605.5C 555.38,586.371 571.714,574.537 593.5,570C 621.45,565.77 645.284,573.603 665,593.5C 668.273,597.052 670.773,601.052 672.5,605.5 Z"/></g>
<g><path style="opacity:1" fill="#106a3a" d="M 296.5,585.5 C 296.666,593.174 296.5,600.841 296,608.5C 295.283,607.956 294.783,607.289 294.5,606.5C 295.167,599.5 295.833,592.5 296.5,585.5 Z"/></g>
<g><path style="opacity:1" fill="#c59116" d="M 544.5,605.5 C 587.167,606.833 629.833,606.833 672.5,605.5C 673.043,605.56 673.376,605.893 673.5,606.5C 630.167,607.833 586.833,607.833 543.5,606.5C 543.624,605.893 543.957,605.56 544.5,605.5 Z"/></g>
<g><path style="opacity:1" fill="#efae15" d="M 532.5,610.5 C 583.167,610.5 633.833,610.5 684.5,610.5C 684.5,615.833 684.5,621.167 684.5,626.5C 633.833,626.5 583.167,626.5 532.5,626.5C 532.5,621.167 532.5,615.833 532.5,610.5 Z"/></g>
</svg>
